build/Karasa-Jaga/scalable/apps/digg-symbolic.svg

<svg height="16" width="16" xmlns="http://www.w3.org/2000/svg"><g fill-rule="evenodd"><rect fill="#fff" height="6.000001" opacity=".6" rx=".828693" ry=".828692" width="6.000001" x="8" y=".999999"/><path d="m6.71875 4.9999994c-.3900601-.0000001-.71875.2633166-.71875.625v2.875c0 .3616836.7661902.5 1.15625.5h1.40625c-.5440295-.0000001-.5219786.4017971-.5219786.90625v5.1874996c.0000002.504454-.022052.90625.5219786.90625h1.826407c.478278 0 .521685-.58081.611093-1 .06799.430976.124517 1 .609675 1h1.861693c.533765 0 .528632-.380065.528632-.875v-5.2499996c0-.4949351-.02279-.875-.556555-.875h1.837805c.390062-.0000001.718751-.1383163.71875-.5v-2.875c0-.3616835-.328689-.625-.71875-.625h-.28125v2.15625c0 .4590956-.481622.84375-1.09375.84375h-5.8125c-.6121274 0-1.09375-.3846544-1.09375-.84375v-2.15625z" fill="#fff" opacity=".6"/><path d="m6.71875 4c-.3900601-.0000001-.71875.2633166-.71875.625v2.875c0 .3616836.7661902.5 1.15625.5h1.40625c-.5440295-.0000001-.5219786.4017971-.5219786.90625v5.1875c.0000002.504454-.0220518.90625.5219786.90625h1.826407c.478278 0 .521685-.58081.611093-1 .06799.430976.124517 1 .609675 1h1.861693c.533765 0 .528632-.380065.528632-.875v-5.25c0-.4949351-.02279-.875-.556555-.875h1.837805c.390062-.0000001.718751-.1383163.71875-.5v-2.875c0-.3616835-.328689-.625-.71875-.625h-.28125v2.15625c0 .4590956-.481622.84375-1.09375.84375h-5.8125c-.6121274 0-1.09375-.3846544-1.09375-.84375v-2.15625z" fill="#bebebe"/></g><g fill="#fff" opacity=".6" transform="translate(0 .999999)"><path d="m2.09375 3c-.9716366.0920443-1.86729081.6159904-2.09375 1.625l.03125 4.375h1.96875v3.5h1v-3.5h2v-4.375c-.2787722-1.151612-1.6570029-1.7433427-2.90625-1.625z" fill="#fff" fill-rule="evenodd"/><path d="m16.38255 38.400002a5.043223 3.1168831 0 1 1 -10.086446 0 5.043223 3.1168831 0 1 1 10.086446 0z" fill="none" stroke="#fff" stroke-width="3.237195" transform="matrix(.2974289 0 0 .3208332 -.872643 1.180006)"/></g><g fill="#bebebe"><g><path d="m2.09375 3c-.9716366.0920443-1.86729081.6159904-2.09375 1.625l.03125 4.375h1.96875v3.5h1v-3.5h2v-4.375c-.2787722-1.151612-1.6570029-1.7433427-2.90625-1.625z" fill-rule="evenodd"/><path d="m16.38255 38.400002a5.043223 3.1168831 0 1 1 -10.086446 0 5.043223 3.1168831 0 1 1 10.086446 0z" transform="matrix(.2974289 0 0 .3208332 -.872643 1.180006)"/></g><rect fill-rule="evenodd" height="6.000001" rx=".828693" ry=".828692" width="6.000001" x="8"/></g></svg>

<?xml version="1.0" encoding="UTF-8" standalone="no"?>
<!-- Created with Inkscape (http://www.inkscape.org/) -->

<svg
   xmlns:dc="http://purl.org/dc/elements/1.1/"
   xmlns:cc="http://creativecommons.org/ns#"
   xmlns:rdf="http://www.w3.org/1999/02/22-rdf-syntax-ns#"
   xmlns:svg="http://www.w3.org/2000/svg"
   xmlns="http://www.w3.org/2000/svg"
   xmlns:xlink="http://www.w3.org/1999/xlink"
   xmlns:sodipodi="http://sodipodi.sourceforge.net/DTD/sodipodi-0.dtd"
   xmlns:inkscape="http://www.inkscape.org/namespaces/inkscape"
   id="svg7384"
   height="16"
   width="16"
   version="1.1"
   inkscape:version="0.48.3.1 r9886"
   sodipodi:docname="digg-symbolic.svg">
  <defs
     id="defs8853">
    <linearGradient
       gradientUnits="userSpaceOnUse"
       xlink:href="#linearGradient3587-6-5"
       id="linearGradient3892"
       y2="6.0197244"
       x2="10.513089"
       y1="-4.7683716e-07"
       x1="10.513089" />
    <linearGradient
       id="linearGradient3587-6-5">
      <stop
         offset="0"
         style="stop-color:#000000;stop-opacity:1"
         id="stop3589-9-2" />
      <stop
         offset="1"
         style="stop-color:#363636;stop-opacity:1"
         id="stop3591-7-4" />
    </linearGradient>
    <linearGradient
       gradientTransform="matrix(0.3533407,0,0,0.3956899,-1.563877,-1.0885543)"
       gradientUnits="userSpaceOnUse"
       xlink:href="#linearGradient3587-6-5"
       id="linearGradient3827"
       y2="25.508486"
       x2="14.275004"
       y1="10.332723"
       x1="14.275004" />
    <linearGradient
       gradientUnits="userSpaceOnUse"
       xlink:href="#linearGradient3587-6-5"
       id="linearGradient3905"
       y2="43.075325"
       x2="11.339327"
       y1="24.238035"
       x1="11.339327" />
    <linearGradient
       gradientTransform="matrix(0.4203412,0,0,0.3897622,-2.2782225,-1.5648954)"
       gradientUnits="userSpaceOnUse"
       xlink:href="#linearGradient3587-6-5"
       id="linearGradient3894"
       y2="42.571205"
       x2="36.372101"
       y1="14.277668"
       x1="36.372101" />
  </defs>
  <sodipodi:namedview
     pagecolor="#ffffff"
     bordercolor="#666666"
     borderopacity="1"
     objecttolerance="10"
     gridtolerance="10"
     guidetolerance="10"
     inkscape:pageopacity="0"
     inkscape:pageshadow="2"
     inkscape:window-width="1366"
     inkscape:window-height="711"
     id="namedview8851"
     showgrid="false"
     inkscape:zoom="7.375"
     inkscape:cx="-1.9378293"
     inkscape:cy="-10.445595"
     inkscape:window-x="0"
     inkscape:window-y="0"
     inkscape:window-maximized="1"
     inkscape:current-layer="svg7384" />
  <metadata
     id="metadata90">
    <rdf:RDF>
      <cc:Work
         rdf:about="">
        <dc:format>image/svg+xml</dc:format>
        <dc:type
           rdf:resource="http://purl.org/dc/dcmitype/StillImage" />
        <dc:title>Gnome Symbolic Icon Theme</dc:title>
      </cc:Work>
    </rdf:RDF>
  </metadata>
  <title
     id="title9167">Gnome Symbolic Icon Theme</title>
  <g
     id="g3868">
    <rect
       style="opacity:0.6;fill:#ffffff;fill-opacity:1;fill-rule:evenodd;stroke:none;stroke-width:0.99999994px;marker:none;visibility:visible;display:inline;overflow:visible;enable-background:accumulate"
       id="rect3919"
       y="0.99999893"
       x="8"
       ry="0.82869244"
       rx="0.82869256"
       height="6.0000005"
       width="6.0000005" />
    <path
       style="opacity:0.6;fill:#ffffff;fill-opacity:1;fill-rule:evenodd;stroke:none;stroke-width:1.00000012px;marker:none;visibility:visible;display:inline;overflow:visible;enable-background:accumulate"
       id="path3911"
       d="M 6.71875,4.9999994 C 6.3286899,4.9999993 6,5.263316 6,5.6249994 l 0,2.875 c 0,0.3616836 0.7661902,0.5 1.15625,0.5 l 1.40625,0 c -0.5440295,-10e-8 -0.5219786,0.4017971 -0.5219786,0.90625 l 0,5.1874996 c 2e-7,0.504454 -0.022052,0.90625 0.5219786,0.90625 l 1.826407,0 c 0.478278,0 0.521685,-0.58081 0.611093,-1 0.06799,0.430976 0.124517,1 0.609675,1 l 1.861693,0 c 0.533765,0 0.528632,-0.380065 0.528632,-0.875 l 0,-5.2499996 c 0,-0.4949351 -0.02279,-0.875 -0.556555,-0.875 l 1.837805,0 c 0.390062,-10e-8 0.718751,-0.1383163 0.71875,-0.5 l 0,-2.875 c 0,-0.3616835 -0.328689,-0.625 -0.71875,-0.625 l -0.28125,0 0,2.15625 c 0,0.4590956 -0.481622,0.84375 -1.09375,0.84375 l -5.8125,0 C 7.4816226,7.9999994 7,7.615345 7,7.1562494 l 0,-2.15625 -0.28125,0 z"
       inkscape:connector-curvature="0" />
    <path
       style="opacity:1;fill:#bebebe;fill-opacity:1;fill-rule:evenodd;stroke:none;stroke-width:1.00000011999999994px;marker:none;visibility:visible;display:inline;overflow:visible;enable-background:accumulate"
       id="path3815"
       d="M 6.71875,4 C 6.3286899,3.9999999 6,4.2633166 6,4.625 L 6,7.5 C 6,7.8616836 6.7661902,8 7.15625,8 L 8.5625,8 c -0.5440295,-1e-7 -0.5219786,0.4017971 -0.5219786,0.90625 l 0,5.1875 C 8.0405216,14.598204 8.0184696,15 8.5625,15 l 1.826407,0 C 10.867185,15 10.910592,14.41919 11,14 c 0.06799,0.430976 0.124517,1 0.609675,1 l 1.861693,0 C 14.005133,15 14,14.619935 14,14.125 l 0,-5.25 C 14,8.3800649 13.97721,8 13.443445,8 L 15.28125,8 C 15.671312,7.9999999 16.000001,7.8616837 16,7.5 L 16,4.625 C 16,4.2633165 15.671311,4 15.28125,4 L 15,4 15,6.15625 C 15,6.6153456 14.518378,7 13.90625,7 L 8.09375,7 C 7.4816226,7 7,6.6153456 7,6.15625 L 7,4 6.71875,4 z"
       inkscape:connector-curvature="0" />
    <g
       style="opacity:0.6;fill:#ffffff"
       id="g3913"
       transform="translate(0,0.9999994)">
      <path
         style="fill:#ffffff;fill-opacity:1;fill-rule:evenodd;stroke:none;stroke-width:1.00000012px;marker:none;visibility:visible;display:inline;overflow:visible;enable-background:accumulate"
         id="path3915"
         d="M 2.09375,3 C 1.1221134,3.0920443 0.22645919,3.6159904 0,4.625 L 0.03125,9 2,9 2,12.5 3,12.5 3,9 5,9 5,4.625 C 4.7212278,3.473388 3.3429971,2.8816573 2.09375,3 z"
         inkscape:connector-curvature="0" />
      <path
         style="fill:none;stroke:#ffffff;stroke-width:3.23719454px;stroke-linecap:butt;stroke-linejoin:miter;stroke-miterlimit:4;stroke-opacity:1;stroke-dasharray:none;stroke-dashoffset:0;marker:none;visibility:visible;display:inline;overflow:visible;enable-background:accumulate"
         id="path3917"
         transform="matrix(0.2974289,0,0,0.3208332,-0.8726432,1.1800056)"
         d="m 16.38255,38.400002 a 5.043223,3.1168831 0 1 1 -10.086446,0 5.043223,3.1168831 0 1 1 10.086446,0 z"
         inkscape:connector-curvature="0" />
    </g>
    <g
       style="opacity:1;fill:#bebebe;fill-opacity:1;stroke:none"
       id="g3907">
      <path
         style="fill:#bebebe;fill-opacity:1;fill-rule:evenodd;stroke:none;stroke-width:1.00000011999999994px;marker:none;visibility:visible;display:inline;overflow:visible;enable-background:accumulate"
         id="path3817"
         d="M 2.09375,3 C 1.1221134,3.0920443 0.22645919,3.6159904 0,4.625 L 0.03125,9 2,9 2,12.5 3,12.5 3,9 5,9 5,4.625 C 4.7212278,3.473388 3.3429971,2.8816573 2.09375,3 z"
         inkscape:connector-curvature="0" />
      <path
         style="fill:#bebebe;stroke:none;stroke-width:3.23719453999999995px;stroke-linecap:butt;stroke-linejoin:miter;stroke-miterlimit:4;stroke-opacity:1;stroke-dasharray:none;stroke-dashoffset:0;marker:none;visibility:visible;display:inline;overflow:visible;enable-background:accumulate;fill-opacity:1"
         id="path3819"
         transform="matrix(0.2974289,0,0,0.3208332,-0.8726432,1.1800056)"
         d="m 16.38255,38.400002 a 5.043223,3.1168831 0 1 1 -10.086446,0 5.043223,3.1168831 0 1 1 10.086446,0 z"
         inkscape:connector-curvature="0" />
    </g>
    <rect
       style="opacity:1;fill:#bebebe;fill-opacity:1;fill-rule:evenodd;stroke:none;stroke-width:0.99999994000000003px;marker:none;visibility:visible;display:inline;overflow:visible;enable-background:accumulate"
       id="rect3823"
       y="-4.7683716e-07"
       x="8"
       ry="0.82869244"
       rx="0.82869256"
       height="6.0000005"
       width="6.0000005" />
  </g>
</svg>
